static/img/svg/bxs-user-plus.svg

<svg xmlns="http://www.w3.org/2000/svg" width="24" height="24"><path d="M8 12c1.649 0 3-1.353 3-3.001 0-1.649-1.352-3-3-3-1.647 0-3 1.351-3 3A3.013 3.013 0 0 0 8 12zM8 13.75c-3.294 0-6 2.281-6 4.5V19h12v-.75c0-2.219-2.705-4.5-6-4.5zM19 8h-2v3h-3v2h3v3h2v-3h3v-2h-3z"/></svg>

<svg xmlns="http://www.w3.org/2000/svg" width="24" height="24" viewBox="0 0 24 24"><path d="M19 8L17 8 17 11 14 11 14 13 17 13 17 16 19 16 19 13 22 13 22 11 19 11zM3 20h10c.553 0 1-.447 1-1v-.5c0-2.54-1.212-4.651-3.077-5.729C11.593 12.063 12 11.1 12 10c0-2.28-1.72-4-4-4s-4 1.72-4 4c0 1.1.407 2.063 1.077 2.771C3.212 13.849 2 15.96 2 18.5V19C2 19.553 2.448 20 3 20z"/></svg>
